X: 176
T: Horses I Seek
C: Teton Sioux band 1911-1914
N: Derived from sioux171.krn
O: South Dakota, U.S.A.
N: Teton Sioux Music by Frances Densmore, 1918
Z: transcribed to **kern format by Craig Sapp
L: 1/8
M: 3/4
Q: 1/4=58
K: Ab clef=bass
%%linebreak <none>
C2C3B, [I:setbarnb 2]| 
A,2A,4 | 
B,2C< B,- B,3/ A,/ | 
A,2A,3F, | 
E,2E,4 ||  
[M:2/4]E,4 ||  
[M:3/4]E, C,E,4 ||  
[M:2/4]C,< C,- C,3/ C,/ ||  
[M:3/4]C,2C,4 ||  
[M:2/4]F,< A,-A,2 | 
A,2A,2 | 
C< A,-A,2 | 
A,2A, F, | 
E,< E,-E,2 | 
E,2E,2 | 
E,4 ||  
[M:3/4]E,> C,E,4 ||  
[M:2/4]C,< C,- C,3/ C,/ | 
C,2C,2 |]  



